X:1
T:Away in a Manger
T:Away in a Manger
T:James R. Murray
T:MichaelKravchuk.com
C:James R. Murray
Z:MichaelKravchuk.com
L:1/8
M:3/4
K:F
V:1 treble nm="Piano" snm="Pno."
V:1
 z2 z2 c2 | c3 B A2 | A2 G2 F2 | F2 E2 D2 | C4 C2 | C3 D C2 | C2 G2 E2 | D2 C2 F2 | A4 c2- | %9
w: A|way in a|man ger no|crib for a|bed, The|lit- tle Lord|Je- sus laid|down His sweet|head. The|
 c c2 B A2 | A2 G2 F2 | F2 E2 D2 | C4 C2 | B3 A G2 | A2 G2 F2 | G2 D2 E2 | F4 z2 |] %17
w: stars in the sky|* looked *|down where He|lay, The|lit- tle Lord|Je- sus a-|sleep on the|hay.|

